!!!!SEGMENT: pl-wtm--r-1447--005_stefani-jozef--spiewki-z-obrazku-dramatycznego-floryna-no-5.krn
!!!cenid: 18xx:2466
!!!COM: Stefani, Józef
!!!COM-rismid: pe30024097
!!!CDT: 1800/04/16-1876/03/19
!!!CNT: Polish
!!!GTL: Śpiewki z Obrazku Dramatycznego Floryna
!!!OTL: No. 5
!!!PDT:
!!!AGN: Secular
!!!SMS-siglum: PL-Wtm
!!!SMS-shelfmark: R 1447
!!!SMS-shelfwork: 005 G
!!!SMS-variant:
!!!SMS-altvar:
!!!NIFC-rismid: 1001116468
!!!OMD: Tempo alla mazurek
!!!system-decoration: s1{(s2,s3)}
**kern	**kern	**dynam	**kern	**text	**dynam
*part2	*part2	*part2	*part1	*part1	*part1
*staff3	*staff2	*	*staff1	*staff1	*
*Iempty	*Ipiano	*	*Iempty	*	*
*	*I"Piano	*	*I"Floryna	*	*
*	*I'pf	*	*I'V	*	*
*clefF4	*clefG2	*	*clefG2	*	*
*k[f#]	*k[f#]	*	*k[f#]	*	*
*G:	*G:	*	*G:	*	*
*M3/4	*M3/4	*	*M3/4	*	*
=1	=1	=1	=1	=1	=1
!!LO:TX:t=P:problem:all\right:global
!	!	!LO:HP:a	!	!	!
8D'\L	8dd'\L	<	2.r	.	.
8E'\	8cc#X'\	[	.	.	.
8F#'\	8ccn'\	.	.	.	.
8G'\	8b'\	.	.	.	.
8A'\	8a'\	.	.	.	.
8B'\J	8g'\J	.	.	.	.
=2	=2	=2	=2	=2	=2
8c\	8f# 8d/	.	2.r	.	.
8r	8r	.	.	.	.
8B\	8b 8d/	.	.	.	.
8r	8r	.	.	.	.
8G\	8b 8g 8d/	.	.	.	.
8r	8r	.	.	.	.
=3	=3	=3	=3	=3	=3
4D/	4dd 4f# 4d/	.	2.r	.	.
8D/L	4r	.	.	.	.
8C/	.	.	.	.	.
8BB/	4r	.	.	.	.
8AA/J	.	.	.	.	.
!!LO:LB:g=original
=4	=4	=4	=4	=4	=4
4GG/	8.bL 8.g\	p	8.b\	Pa-	.
.	16eeJk 16cc\	.	16ee\	-mię-	.
4G\	4dd 4b\	.	4dd\	-taj-	.
4G\	4b 4g/	.	4b\	-cie	.
=5	=5	=5	=5	=5	=5
.	(8qb 8qg/	.	8qb/	.	.
4D\	8.aL 8.f#/)	.	8.a/	o	.
.	16g#XJk 16e#X/	.	16g#X/	Flo-	.
4d\	4a 4f#/	.	4a/	-ry-	.
4d\	4b 4g#/	.	4b/	-nie	.
=6	=6	=6	=6	=6	=6
4D\	8.ccL 8.a/	.	8.cc\	Racz-	.
.	16aJk 16f#/	.	16a\	-cie	.
4d\	4dd 4b\	.	4dd\	wzglę-	.
4d\	4cc 4a\	.	4cc\	-dy	.
=7	=7	=7	=7	=7	=7
.	(8qcc 8qa/	.	(8qcc/	.	.
4GG/	8.bL 8.g/)	.	8.b/)	zwra-	.
.	16aJk 16f#/	.	16a/	-cać	.
4G\	4b 4g/	.	8b/	na	.
.	.	.	8g/	nią	.
4G\	4b 4B/	.	4ryy	.	.
!!LO:LB:g=original
=8	=8	=8	=8	=8	=8
4C#X 4CC#X/	4r	.	8.a/	kie-	.
.	.	.	16a/	-dy	.
.	.	.	8qcc#X/	.	.
4r	8g 8e 8A/	.	4b/	w swo-	.
.	8r	.	.	.	.
4r	4g 4e 4A/	.	4a/	-im	.
=9	=9	=9	=9	=9	=9
4D 4DD/	4r	.	8.g#X/	ma-	.
.	.	.	16a/	-ga-	.
4r	8f# 8d 8A/	.	4dd\	-zy-	.
.	8r	.	.	.	.
4r	4f# 4d 4A/	.	4f#/	-nie	.
=10	=10	=10	=10	=10	=10
4AA 4AAA/	4r	.	8.a/	Już	.
.	.	.	16g/	zo-	.
4r	(4g 4c#X 4A'/	.	4e/	-sta-	.
4r	4g 4c# 4A'/)	.	4a/	-nie	.
=11	=11	=11	=11	=11	=11
8D 8DD/	8f# 8d 8A/	.	8a/	Pa-	.
8r	8r	.	8r	.	.
4.D 4.DD/	4.f# 4.d 4.A/	.	4.d/	-nią	.
!	!	!	!LO:TX:b:Bi:t=Proza \n/&colon; ale mąż i prawda &colon;/	!	!
8r;	8r;	.	8r;	.	.
!!LO:LB:g=original
=12	=12	=12	=12	=12	=12
*^	*	*	*	*	*
4r	2.DD\	8.aL 8.f#/	p	8.a/	Oh!	.
!	!	!	!	!	!	!LO:HP:a
.	.	16bJk 16g/	.	16b/	mój	<
4d/	.	8.ccL 8.a/	.	8.cc\	Mąż	.
.	.	16ccJk 16a/	.	16cc\	jak	.
4d/	.	8.ddL 8.b/	.	8.dd\	ja	.
.	.	16ccJk 16a/	.	16cc\	w tej	[
=13	=13	=13	=13	=13	=13	=13
!	!	!	!	!	!	!LO:HP:a
4r	2.G\	8bL 8g\	.	(8b\L	chwi-	>
.	.	8ggJ 8b\	.	8gg\J)	.	]
4d/	.	4dd 4b\	.	4dd\	-li	.
4d/	.	4r	.	4r	.	.
=14	=14	=14	=14	=14	=14	=14
4r	2.DD\	8.aL 8.f#/	.	8.a/	Choć	.
.	.	16ccJk 16a/	.	16cc\	za-	.
4d/	.	8b 8g/	.	8b\	-zdro-	.
.	.	8r	.	8r	.	.
4d/	.	4a 4f#/	.	4a/	-sny	.
=15	=15	=15	=15	=15	=15	=15
.	.	8qcc 8qa/	.	(8qcc/	.	.
4r	2.GG\	8.bL 8.g/	.	8.b/)	za-	.
.	.	16a#XJk 16f#/	.	16a#X/	-wsze	.
4G/	.	8b 8g/	.	8b/	wszę-	.
.	.	8r	.	8r	.	.
4G/	.	4g 4B/	.	4g/	-dzie	.
!!LO:PB:g=original
*v	*v	*	*	*	*	*
=16	=16	=16	=16	=16	=16
4E 4EE/	4r	.	8.g/	Dla	.
.	.	.	16a/	was	.
4r	(4g 4e 4B'/	.	4b/	je-	.
4r	4g 4e 4B'/)	.	4g/	-dnak	.
=17	=17	=17	=17	=17	=17
8C 8CC/	4r	.	8.f#/	go-	.
8r	.	.	.	.	.
.	.	.	16e/	-ście	.
4.C 4.CC/	4.e 4.c 4.G^/	.	4ee\	mi-	.
.	.	.	4e/	-li	.
8r	8r	.	.	.	.
=18	=18	=18	=18	=18	=18
8D 8DD\	8d 8B 8G/	.	8.d/	Naj-	.
8r	8r	.	.	.	.
.	.	.	16g/	-grze-	.
4r	4r	.	4.b/	-czniej-	.
4D 4DD\	4f# 4d 4c 4A/	.	.	.	.
.	.	.	8f#/	-szym	.
=19	=19	=19	=19	=19	=19
4r	4r	.	4a/	bę-	.
4G 4GG\	4gg 4b 4g\	f	8g/	-dzie.	.
.	.	.	8r	.	.
4r	4dd 4d/	.	4r	.	.
!!LO:LB:g=original
=20	=20	=20	=20	=20	=20
*^	*	*	*	*	*
4r	2.D\	8.aL 8.f#/	.	2.r	.	.
.	.	16bK 16g/	.	.	.	.
4d 4A/	.	8.cc 8.a/	.	.	.	.
.	.	16ccK 16a/	.	.	.	.
4d 4A/	.	8.dd 8.b/	.	.	.	.
.	.	16ccJk 16a/	.	.	.	.
=21	=21	=21	=21	=21	=21	=21
4r	2.G\	(8bL 8g\	.	2.r	.	.
.	.	8ggJ 8b\	.	.	.	.
4d 4B/	.	4dd 4b\)	.	.	.	.
4d 4B/	.	4r	.	.	.	.
=22	=22	=22	=22	=22	=22	=22
4r	2.D\	8.aL 8.f#/	.	2.r	.	.
.	.	16ccJk 16a/	.	.	.	.
4d/	.	4b 4g/	.	.	.	.
4d/	.	4a 4f#/	.	.	.	.
*v	*v	*	*	*	*	*
=23	=23	=23	=23	=23	=23
.	8qcc 8qa/	.	.	.	.
4GG/	8.bL 8.g/	.	2.r	.	.
.	16a#XJk 16f#/	.	.	.	.
4B 4G 4D\	4b 4g/	.	.	.	.
4B 4G 4D\	4g 4d/	.	.	.	.
!!LO:LB:g=original
=24	=24	=24	=24	=24	=24
*^	*	*	*	*	*
4r	2.D\	8.aL 8.f#/	.	2.r	.	.
.	.	16bK 16g/	.	.	.	.
4d 4A/	.	8.cc 8.a/	.	.	.	.
.	.	16ccK 16a/	.	.	.	.
4d 4A/	.	8.dd 8.b/	.	.	.	.
.	.	16ccJk 16a/	.	.	.	.
=25	=25	=25	=25	=25	=25	=25
4r	2.G\	(8bL 8g\	.	2.r	.	.
.	.	8ggJ 8b\	.	.	.	.
4d 4B/	.	4dd 4b\)	.	.	.	.
!	!	!	!LO:DY:b	!	!	!
4r	.	4r	ff	.	.	.
*v	*v	*	*	*	*	*
=26	=26	=26	=26	=26	=26
8.cL 8.C\	8.eeL 8.cc 8.g\	.	2.r	.	.
16cJk 16C\	16eeJk 16cc 16g\	.	.	.	.
4d 4D\	4dd 4b 4g\	.	.	.	.
4c 4A 4D\	4ff#t\	.	.	.	.
=27	=27	=27	=27	=27	=27
8B 8G\	8gg\	.	2.r	.	.
8r	8r	.	.	.	.
4B 4G\	4g/	.	.	.	.
4r	4r	.	.	.	.
==	==	==	==	==	==
*-	*-	*-	*-	*-	*-
!!title: @{OTL};
!!!RDF**kern: > = above
!!!RDF**kern: < = below
!!!RDF**kern: | = vertical stroke
!!!RDF**kern: N = linked
!!!RDF**kern: i = editorial accidental
!!!EED: Wojciech Jakubiak-Danek
!!!EST: 2021-07-10
!!!URL-scan: http://repozytorium.nifc.pl/skany/pl-wtm-nut--r1447
!!!ONB-nifc: UWAGA: podział na pięć numerów (No. 1 – No. 5)
!!!ENC: Anastazja Marusiak
!!!END: 2021-07-05
